_art/battery/50.svg

<?xml version="1.0" encoding="UTF-8" standalone="no"?>
<svg
   xmlns:dc="http://purl.org/dc/elements/1.1/"
   xmlns:cc="http://creativecommons.org/ns#"
   xmlns:rdf="http://www.w3.org/1999/02/22-rdf-syntax-ns#"
   xmlns:svg="http://www.w3.org/2000/svg"
   xmlns="http://www.w3.org/2000/svg"
   xmlns:sodipodi="http://sodipodi.sourceforge.net/DTD/sodipodi-0.dtd"
   xmlns:inkscape="http://www.inkscape.org/namespaces/inkscape"
   viewBox="0 0 16 16"
   version="1.1"
   id="svg4"
   sodipodi:docname="battery50.svg"
   inkscape:version="0.92.4 (5da689c313, 2019-01-14)">
  <metadata
     id="metadata10">
    <rdf:RDF>
      <cc:Work
         rdf:about="">
        <dc:format>image/svg+xml</dc:format>
        <dc:type
           rdf:resource="http://purl.org/dc/dcmitype/StillImage" />
      </cc:Work>
    </rdf:RDF>
  </metadata>
  <defs
     id="defs8" />
  <sodipodi:namedview
     pagecolor="#ffffff"
     bordercolor="#666666"
     borderopacity="1"
     objecttolerance="10"
     gridtolerance="10"
     guidetolerance="10"
     inkscape:pageopacity="0"
     inkscape:pageshadow="2"
     inkscape:window-width="757"
     inkscape:window-height="480"
     id="namedview6"
     showgrid="false"
     inkscape:zoom="14.75"
     inkscape:cx="-0.44067797"
     inkscape:cy="8"
     inkscape:window-x="2512"
     inkscape:window-y="231"
     inkscape:window-maximized="0"
     inkscape:current-layer="svg4" />
  <path
     style="line-height:normal;text-indent:0;text-align:start;text-decoration-line:none;text-decoration-style:solid;text-decoration-color:#000;text-transform:none;block-progression:tb;isolation:auto;mix-blend-mode:normal;fill:#ffffff"
     d="M 1.5878906 4 C 0.7173351 4 1.4802974e-16 4.7173351 0 5.5878906 L 0 10.412109 C 0 11.282665 0.71733509 12 1.5878906 12 L 12.412109 12 C 13.282665 12 14 11.282665 14 10.412109 L 14 10 L 15 10 C 15.546531 10 16 9.5465314 16 9 L 16 7 C 16 6.4534686 15.546531 6 15 6 L 14 6 L 14 5.5878906 C 14 4.7173351 13.282665 4 12.412109 4 L 1.5878906 4 z M 1.5878906 5 L 12.412109 5 C 12.741554 5 13 5.2584462 13 5.5878906 L 13 10.412109 C 13 10.741554 12.741554 11 12.412109 11 L 1.5878906 11 C 1.2584462 11 1 10.741554 1 10.412109 L 1 5.5878906 C 1 5.2584462 1.2584462 5 1.5878906 5 z M 2 6 L 2 10 L 7 10 L 7 6 L 2 6 z M 14 7 L 15 7 L 15 9 L 14 9 L 14 7 z"
     font-weight="400"
     font-family="sans-serif"
     white-space="normal"
     overflow="visible"
     id="path2" />
</svg>

<svg width="16" height="16" xmlns="http://www.w3.org/2000/svg">
 <metadata id="metadata10">image/svg+xml</metadata>

 <g>
  <title>background</title>
  <rect fill="none" id="canvas_background" height="602" width="802" y="-1" x="-1"/>
 </g>
 <g>
  <title>Layer 1</title>
  <path fill="#ffff00" id="path2" d="m1.58789,4c-0.87055,0 -1.58789,0.71734 -1.58789,1.58789l0,4.82422c0,0.87055 0.71734,1.58789 1.58789,1.58789l10.82422,0c0.87055,0 1.58789,-0.71734 1.58789,-1.58789l0,-0.41211l1,0c0.54653,0 1,-0.45347 1,-1l0,-2c0,-0.54653 -0.45347,-1 -1,-1l-1,0l0,-0.41211c0,-0.87055 -0.71734,-1.58789 -1.58789,-1.58789l-10.82422,0zm0,1l10.82422,0c0.32944,0 0.58789,0.25845 0.58789,0.58789l0,4.82422c0,0.32944 -0.25845,0.58789 -0.58789,0.58789l-10.82422,0c-0.32944,0 -0.58789,-0.25845 -0.58789,-0.58789l0,-4.82422c0,-0.32944 0.25845,-0.58789 0.58789,-0.58789zm0.41211,1l0,4l5,0l0,-4l-5,0zm12,1l1,0l0,2l-1,0l0,-2z"/>
 </g>
</svg>
